X:1
T:Title
%%score { ( 1 3 4 ) | ( 2 5 ) }
L:1/8
M:4/4
K:C
V:1 treble nm="Grand Piano"
V:3 treble 
V:4 treble 
V:2 bass 
V:5 bass 
V:1
 z4 z2[Q:1/4=108] G2 | [EGc]2 [EGc]2 [EB]2 [CEB]2 | [CEA]4 z4 | [FG]2 [B,D]2 [FG]2 [B,FA]2 | %4
[M:3/4] [CEG]4 z2 |[M:1/4] G2 |[M:4/4] [EGc]2 [EGc]2 [EB]2 [CEB]2 | [CEA]4 z4 | B2 c2 d2 B2 | %9
 A4 z4 | [CEc]2 [CEc]2 [CEG]4 | [CFA]2 [^CGA]2 [DFAd]4 | [FGc]2 [FGB]2 [FGd]2 [FGB]2 | %13
 [C_EA]4 [C=EG]4 | [CFA]2 [CFA]2 [CGc]4 | [CFA]2 [CFA]2 [CGc]4 | [D^FAd]2 [DFA]2 [DGB]2 [DFc]2 | %17
 [DGBd]6[K:bass] z2 | [CEGc]2 [CEGc]2 [CEB]2 [CEA]2 | [B,FB]2 [DFd]2 [B,FA]4 | %20
 [B,FB]2 [B,FB]2 [B,FA]2 [B,FG]2 | z4 G4 | [CGc]2 [CGc]2 [^CG^c]4 | [DAd]2 [DAd]2 [C_EA]4 | %24
 [CEG]2 [EGc]2 [FAd]2 [FBe]2 |[M:3/4] [EGc]6 |] %26
V:2
 z8 | [C,G,]2 [G,,G,]2 [C,G,C]2 [G,,G,]2 | [C,G,]2 z C C,2 [G,,G,]2 | %3
 [D,G,B,]2 [G,,G,]2 [D,G,B,]2 [G,,G,]2 |[M:3/4] [C,G,]2 G,,2 [C,G,C]2 |[M:1/4] z2 | %6
[M:4/4] [C,G,]2 [G,,G,]2 [C,G,C]2 [G,,G,]2 | [C,G,]2 z C C,2 [C,G,]2 | %8
 [D,G,D]2 [D,A,D]2 [D,B,D]2 [D,G,D]2 | [D,C]4 [G,,G,]4 | [C,,C,]2 [G,,,G,,]2 [C,,C,]2 [E,,E,]2 | %11
 [F,,F,]2 [E,,E,]2 [D,,D,]2 [F,,F,]2 | [G,,G,]2 [G,,G,]2 [B,,B,]2 [G,,G,]2 | %13
 [C,,C,]2 [^F,,^F,]2 [G,,G,]2 [E,,E,]2 | [F,,F,]2 [F,,F,]2 [E,,E,]2 [C,,C,]2 | %15
 [F,,F,]2 [F,,F,]2 [E,,E,]2 [C,,C,]2 | [D,,D,]2 [C,C]2 [B,,B,]2 [A,,A,]2 | %17
 [G,,G,]2 F,,2 D,,2 G,,2 | [C,,C,]2 [G,,,G,,]2 [C,,C,]2 [G,,,G,,]2 | %19
 [D,,D,]2 [G,,,G,,]2 [D,,D,]2 [G,,,G,,]2 | [D,,D,]2 [G,,,G,,]2 [D,,D,]2 [G,,,G,,]2 | %21
 [C,,C,]2 [G,,,G,,]2 [C,,C,]2 [D,,D,]2 | [E,,E,]2 [E,,E,]2 [A,,A,]2 [G,,G,]2 | %23
 [F,,F,]2 [F,,F,]2 [^F,,^F,]4 | [G,,G,]2 [G,,G,]2 [G,,G,]2 [G,,G,]2 |[M:3/4] [C,G,]6 |] %26
V:3
 x8 | x8 | z2 z E [G,CEG]2 [CEA]2 | x8 |[M:3/4] z2 G,2 E2 |[M:1/4] x2 |[M:4/4] x8 | %7
 z2 z E [G,CEG]2 [_EA]2 | x8 | z2 ^F,2 [B,G]4 | x8 | x8 | x8 | x8 | x8 | x8 | x8 | %17
 z2[K:bass] F,2 D,2 G,2 | x8 | x8 | x8 | [CEA]2 [CEc]2 [CE]2 [B,F]2 | x8 | x8 | x8 |[M:3/4] x6 |] %26
V:4
 x8 | x8 | z2 G,2 z4 | x8 |[M:3/4] x6 |[M:1/4] x2 |[M:4/4] x8 | z2 G,2 z4 | x8 | x8 | x8 | x8 | %12
 x8 | x8 | x8 | x8 | x8 | x2[K:bass] x6 | x8 | x8 | x8 | x8 | x8 | x8 | x8 |[M:3/4] x6 |] %26
V:5
 x8 | x8 | z2 G,,2 z4 | x8 |[M:3/4] x6 |[M:1/4] x2 |[M:4/4] x8 | z2 G,,2 z4 | x8 | E,2 z2 z4 | x8 | %11
 x8 | x8 | x8 | x8 | x8 | x8 | x8 | x8 | x8 | x8 | x8 | x8 | x8 | x8 |[M:3/4] x6 |] %26

